humanity-icon-theme/Humanity/animations/22/brasero-disc-50.svg

<?xml version="1.0" encoding="UTF-8" standalone="no"?>
<!-- Created with Inkscape (http://www.inkscape.org/) -->
<svg
   xmlns:svg="http://www.w3.org/2000/svg"
   xmlns="http://www.w3.org/2000/svg"
   xmlns:xlink="http://www.w3.org/1999/xlink"
   version="1.0"
   width="22"
   height="22"
   id="svg2">
  <defs
     id="defs4">
    <linearGradient
       id="linearGradient3587-6-5">
      <stop
         id="stop3589-9-2"
         style="stop-color:#000000;stop-opacity:1"
         offset="0" />
      <stop
         id="stop3591-7-4"
         style="stop-color:#363636;stop-opacity:1"
         offset="1" />
    </linearGradient>
    <linearGradient
       x1="15.669166"
       y1="-2.6219723"
       x2="15.669166"
       y2="11.969362"
       id="linearGradient2399"
       xlink:href="#linearGradient3587-6-5"
       gradientUnits="userSpaceOnUse"
       gradientTransform="matrix(0.9302326,0,0,1.2359551,-11.575969,5.1536003)" />
    <linearGradient
       x1="35.007519"
       y1="23.178743"
       x2="35.007519"
       y2="4.9945626"
       id="linearGradient2402"
       xlink:href="#linearGradient3587-6-5"
       gradientUnits="userSpaceOnUse"
       gradientTransform="translate(-25.785715,-3.035714)" />
  </defs>
  <path
     d="M 11,4 C 6.5840001,4 2.9999998,7.5840001 3,12 C 3,16.416 6.5840002,20 11,20 C 15.416,20 19,16.416 19,12 C 19,7.5840001 15.416,4.0000002 11,4 z M 11,9 C 12.656,9 14,10.344 14,12 C 14,13.656 12.656,15 11,15 C 9.344,15 8,13.656 8,12 C 8.0000001,10.344 9.344,9 11,9 z"
     id="path3229"
     style="opacity:0.6;fill:#ffffff;fill-opacity:1;fill-rule:evenodd;stroke:none;stroke-width:1;stroke-linecap:butt;stroke-linejoin:miter;marker:none;marker-start:none;marker-mid:none;marker-end:none;stroke-miterlimit:4;stroke-dasharray:none;stroke-dashoffset:0;stroke-opacity:1;visibility:visible;display:inline;overflow:visible;enable-background:accumulate" />
  <path
     d="M 11,3 C 6.5840001,3 2.9999998,6.5840001 3,11 C 3,15.416 6.5840002,19 11,19 L 11,14 C 9.344,14 8,12.656 8,11 C 8.0000001,9.344 9.344,8 11,8 L 11,3 z"
     id="path3170"
     style="opacity:0.41999996;fill:url(#linearGradient2402);fill-opacity:1;fill-rule:evenodd;stroke:none;stroke-width:1;stroke-linecap:butt;stroke-linejoin:miter;marker:none;marker-start:none;marker-mid:none;marker-end:none;stroke-miterlimit:4;stroke-dasharray:none;stroke-dashoffset:0;stroke-opacity:1;visibility:visible;display:inline;overflow:visible;enable-background:accumulate" />
  <path
     d="M 11,3 L 11,8 C 12.656,8.0000001 14,9.344 14,11 C 14,12.656 12.656,14 11,14 L 11,19 C 15.416,19 19,15.416 19,11 C 19,6.5840001 15.416,3.0000002 11,3 z"
     id="path3288"
     style="opacity:0.7;fill:url(#linearGradient2399);fill-opacity:1;fill-rule:nonzero;stroke:none;stroke-width:1;stroke-linecap:butt;stroke-linejoin:miter;marker:none;marker-start:none;marker-mid:none;marker-end:none;stroke-miterlimit:4;stroke-dasharray:none;stroke-dashoffset:0;stroke-opacity:1;visibility:visible;display:inline;overflow:visible;enable-background:accumulate" />
</svg>

<?xml version="1.0" encoding="UTF-8" standalone="no"?>
<!-- Created with Inkscape (http://www.inkscape.org/) -->
<svg id="svg2" xmlns="http://www.w3.org/2000/svg" height="22" width="22" version="1.0" xmlns:xlink="http://www.w3.org/1999/xlink">
 <defs id="defs4">
  <linearGradient id="linearGradient3587-6-5">
   <stop id="stop3589-9-2" offset="0"/>
   <stop id="stop3591-7-4" style="stop-color:#363636" offset="1"/>
  </linearGradient>
  <linearGradient id="linearGradient2399" y2="11.969" xlink:href="#linearGradient3587-6-5" gradientUnits="userSpaceOnUse" x2="15.669" gradientTransform="matrix(.93023 0 0 1.236 -11.576 5.1536)" y1="-2.622" x1="15.669"/>
  <linearGradient id="linearGradient2402" y2="4.9946" xlink:href="#linearGradient3587-6-5" gradientUnits="userSpaceOnUse" x2="35.008" gradientTransform="translate(-25.786 -3.0357)" y1="23.179" x1="35.008"/>
 </defs>
 <path id="path3229" style="opacity:.6;fill-rule:evenodd;fill:#fff" d="m11 4c-4.416 0-8 3.584-8 8s3.584 8 8 8 8-3.584 8-8-3.584-8-8-8zm0 5c1.656 0 3 1.344 3 3s-1.344 3-3 3-3-1.344-3-3 1.344-3 3-3z"/>
 <path id="path3170" style="opacity:0.42;fill-rule:evenodd;fill:url(#linearGradient2402)" d="m11 3c-4.416 0-8 3.584-8 8s3.584 8 8 8v-5c-1.656 0-3-1.344-3-3s1.344-3 3-3v-5z"/>
 <path id="path3288" style="opacity:.7;fill:url(#linearGradient2399)" d="m11 3v5c1.656 0 3 1.344 3 3s-1.344 3-3 3v5c4.416 0 8-3.584 8-8s-3.584-8-8-8z"/>
</svg>
